X:151
T:<A Barn Dance> (Jimmy Duffy's #1)
M:4/4
L:1/8
R:barndance
N:Learned from Kira Ott
Z:Michael Abraham Shulman
K:G
BGDG B3c|BAGB d2d2|efgd BdcB|AGFG A3c|
BGDG B3c|BAGB d2d2|efgd BdcB|1 AGFA G3A:|2 AGFA G2Bd|
|:g2g2 B3c|BAGB d2d2|efgd BdcB|AGFG A2Bd|
[1 g2g2 B3c|BAGB d2d2|efgd BdcB|AGFA G2Bd:|
[2 BGDG B3c|BAGB d2d2|efgd BdcB|AGFA G4||
